remix/System/divide-fill.svg

<svg viewBox="0 0 24 24" fill="currentColor" xmlns="http://www.w3.org/2000/svg"><path d="M5 11H19V13H5V11ZM12 8C11.1716 8 10.5 7.32843 10.5 6.5C10.5 5.67157 11.1716 5 12 5C12.8284 5 13.5 5.67157 13.5 6.5C13.5 7.32843 12.8284 8 12 8ZM12 19C11.1716 19 10.5 18.3284 10.5 17.5C10.5 16.6716 11.1716 16 12 16C12.8284 16 13.5 16.6716 13.5 17.5C13.5 18.3284 12.8284 19 12 19Z"/></svg>

<svg viewBox="0 0 24 24" xmlns="http://www.w3.org/2000/svg"><path fill="none" d="M0 0h24v24H0Z"/><path d="M5 11h14v2H5v-2Zm7-3v0c-.83 0-1.5-.68-1.5-1.5 0-.83.67-1.5 1.5-1.5v0c.82 0 1.5.67 1.5 1.5 0 .82-.68 1.5-1.5 1.5Zm0 11v0c-.83 0-1.5-.68-1.5-1.5 0-.83.67-1.5 1.5-1.5v0c.82 0 1.5.67 1.5 1.5 0 .82-.68 1.5-1.5 1.5Z"/></svg>
